X: 2075
M: C|
L: 1/8
K: C
c2d2 e2 (fe/f/) | (gf)(ga) g2G2 |\
c2d2 e2 (fe/f/) | g6 :: (de) |\
f2e2 G2e2 | c3B A2d2 |
f2e2 d2e2 | c3B A2d2 |\


